X:43b
T:Honky Tonk Swing
C:Bill Monroe - Arr. Mike Compton
S:Jim Coon to CoMandoList TOW
M:4/4
L:1/8
Q:1/8=368
K:D
G,G,|"C"=CCEG =c2c2|=cc^AB G2G=A|=cdcc cccG|"C7"EGE=C zCDE|!
"F"=FGA=c zcd^d|ege=c zGAG|"C" (3=ccc c2 G=F^DE|=C2[e2=c2G2] [e2c2G2][ec
G]G,|!
"G"B,G^A,B, G2=cc|e=czG =FG^DE|"C"=C2[e2=c2G2] [ecG]G,A,B,|=C2[e2=c2G2] 
[e2c2G2]G,G,|!
=CCEG =c2cA|=cc^AB G4|(3=cdc  (3BcB G=F^DE|"C7"EG^DE =C2[=c2G2]|!
"F"=FGA=c zcd^d|ege=c cGAG|"C"=cczG =FF^DE|=C2[=c2G2] [c2G2][c2G2]|!
"G"B,G^A,B, G2=cc|e=czG =FG^DE|"C"=C2[=c2E2] [cE][AD][B^D][A=D]|[=c2E2]c
2 c2c2|!
=c'c'c'c' c'c'c'c'|=c'c'c'c' c'c'c'c'|=c'c'c'c' c'c'c'g|"C7"g2^d2 =c4|!
"F"=ff2f f2f2|gg2g z^de2|"F"=c2cG =FFEE|[=c2E2][c2E2] [c2E2]cA|!
"G"Bgza g2g2|ga2g [e^d][ed][ed][ed]|"C"=c2cG =FFEE|[=c2E2][c2E2] [c2E2][
c2E2]|!
W:Created with TablEdit http://www.tabledit.com/
